X:65
T: Die dienende Schwester
N: Q0075T
O: Mitteleuropa, Deutschland (DDR) , Brandenburg
R: Ballade, Adelige als Dienstmagd, Tod; Kinder - Spiel, Tanz
M: 2/4
L: 1/8
K: F
C2 | F2C2 | F2c2 | AAA
F | GGGE | FAF
C | F2C2 | FdcB | A2G2 | F2

